source/images/projects/zotquery.svg

<svg width="119" height="102" viewBox="0 0 119 102" xmlns="http://www.w3.org/2000/svg"><title>zotquery</title><g fill="none" fill-rule="evenodd" stroke="#A7ADBA"><path d="M118 1H1v25h29v-9h53.9164077L47.083326 34l-.0000016 25.625H73V46.4824388L117.499512 27.5 118 1zM46 83h27v18H46z" fill="#4F5B66"/><path d="M90 64v-9h28v25H1V53.5l41.4995114-18v24L33.1929922 64H90z" fill="#BF616A"/></g></svg>

<?xml version="1.0" encoding="UTF-8" standalone="no"?>
<svg width="119px" height="102px" viewBox="0 0 119 102" version="1.1" xmlns="http://www.w3.org/2000/svg" xmlns:xlink="http://www.w3.org/1999/xlink" xmlns:sketch="http://www.bohemiancoding.com/sketch/ns">
    <!-- Generator: Sketch 3.3.3 (12081) - http://www.bohemiancoding.com/sketch -->
    <title>zotquery</title>
    <desc>Created with Sketch.</desc>
    <defs></defs>
    <g id="Page-1" stroke="none" stroke-width="1" fill="none" fill-rule="evenodd" sketch:type="MSPage">
        <path d="M118,1 L1,1 L1,26 L30,26 L30,17 L83.9164077,17 L47.0833259,34 L47.0833244,59.625 L73,59.625 L73,46.4824388 L117.499512,27.5 L118,1 Z" id="Rectangle-1" stroke="#A7ADBA" fill="#4F5B66" sketch:type="MSShapeGroup"></path>
        <rect id="Rectangle-4" stroke="#A7ADBA" fill="#4F5B66" sketch:type="MSShapeGroup" x="46" y="83" width="27" height="18"></rect>
        <path d="M90,64 L90,55 L118,55 L118,80 L1,80 L1,53.5 L42.4995114,35.5 L42.4995114,59.5 L33.1929922,64 L90,64 Z" id="Rectangle-5" stroke="#A7ADBA" fill="#BF616A" sketch:type="MSShapeGroup"></path>
    </g>
</svg>
